!!!CDT:
!!!PTL: Musiche di Sigismondo d' India 
!!!PPP: Milan
!!!PPR: Simon Tini & Filippo Lomazzo
!!!PDT: 1609
!!!RISM: I 24
!!!rime:
!!!AGN: Madrigal
!!!SCT: Tsg19106c
!!!SCA: Tsg19106c
!!!voices:
!!!COM: D'India, Sigismondo
!!!OTL: Misera, non credea ch'a gli occhi miei
**kern	**kern	**text
*part2	*part1	*part1
*staff2	*staff1	*staff1
*I"[Basso continuo]	*I"[Canto]	*
*I'Bc	*I'C	*
*oclefF4	*oclefG2	*
*clefF4	*clefG2	*
*k[b-]	*k[b-]	*
*F:	*F:	*
*omet(C)	*omet(C)	*
*M4/4	*M4/4	*
=1	=1	=1
1D	2r	.
.	[2dd	Mi-
=2	=2	=2
[1F#X	2dd]	.
.	8a	-se-
.	8a	-ra,
.	8a	non
.	8a	cre-
=3	=3	=3
2F#]	4.a	-dea
.	8b-y	ch'a
(4G	8b-yL	gl'oc-
.	16cc	.
.	16ddJ	.
4G)	16ccL	.
.	16cc	.
.	8b-yJ	.
=4	=4	=4
1FnXi	8ccL	.
.	16dd	.
.	16eeJ	.
.	16ddL	.
.	16dd	.
.	8ccJ	.
.	8ddL	.
.	16ee	.
.	16ffJ	.
.	16eeL	.
.	16ee	.
.	16ee	.
.	32dd	.
.	32eeJ	.
=5	=5	=5
1FF	4.ff	.
.	8b-y	-chi
.	2cc	mie-
=6	=6	=6
1FF	1cc	-i
=7	=7	=7
1F	4r	.
.	4cc	Po-
.	8cc	-tes-
.	8cc	-si in
.	8cc	al-
.	8cc	-cun
=8	=8	=8
1F	4cc	tem-
.	2dd	-po es-
.	8b-y	-ser
.	8a	no-
=9	=9	=9
[1E-X	8aL	-io-
.	16b-y	.
.	16ccJ	.
.	(8f#XL	.
.	8f#i)J	.
.	8.gL	.
.	16aJ	.
.	16gL	.
.	16g	.
.	16g	.
.	16gJ	.
=10	=10	=10
1E-]	16aL	.
.	16b-y	.
.	16cc	.
.	16ddJ	.
.	16ccL	.
.	16cc	.
.	16cc	.
.	32b-y	.
.	32ccJ	.
.	16ddL	.
.	16a	.
.	32b-y	.
.	32g	.
.	32a	.
.	32eJ	.
.	16f#XL	.
.	16f#i	.
.	16f#i	.
.	32e	.
.	32f#iJ	.
=11	=11	=11
2E-i	4.g	.
.	16aL	.
.	16b-yJ	.
2D	2a	-so:
=12	=12	=12
2D	8r	.
.	8a	Hor
.	8b-y	cie-
.	8cc	-ca
2BB-y	8dd	far-
.	8ff	-mi
.	8ee	vo-
.	8dd	-len-
=13	=13	=13
1F	4.cc	-tier
.	8b-y	tor-
.	2cc	-re-
=14	=14	=14
1F	2cc	-i
.	8r	.
.	8dd	Per
.	8b-y	non
.	8a	ve-
=15	=15	=15
2.E-X	4.g	-der-
.	8cc	-ti, e
.	16ccL	ri-
.	16cc	.
.	16cc	.
.	32b-y	.
.	32ccJ	.
4D	4dd	.
=16	=16	=16
2D	16aL	-guar-
.	16a	.
.	16a	.
.	32g	.
.	32aJ	.
.	4b-y	.
2D	16f#XL	-dar
.	16f#i	.
.	16f#i	.
.	32e	.
.	32f#iJ	.
.	4g	.
=17	=17	=17
2D	8r	.
.	16dL	non
.	16eJ	.
.	16fnXiL	.
.	16g	.
.	16a	.
.	16b-yJ	.
2D	16ccL	.
.	16g	.
.	16a	.
.	16eJ	.
.	4f	.
=18	=18	=18
1D	4r	.
.	16ddL	o-
.	16cc	.
.	16b-y	.
.	16aJ	.
.	8b-yL	.
.	8aJ	.
.	16ccL	.
.	16b-y	.
.	16a	.
.	16gJ	.
=19	=19	=19
1EE	8b-yL	.
.	8aJ	.
.	8aL	.
.	8gJ	.
.	2a	.
=20	=20	=20
1GG	1g	-so.
=21	=21	=21
1G	2r	.
.	[2dd	Ohi-
=22	=22	=22
1E	2dd]	.
.	[2bnX	-mè,
=23	=23	=23
2E	8b]	.
.	8bnXi	da
.	8cc	gl'oc-
.	8dd	-chi
2C	4.ee	già
.	8cc	sì
=24	=24	=24
4F	4.cc	dol-
4E	.	.
.	8dd	-ci e
2G	2dd	re-
=25	=25	=25
1G	1dd	-i
=26	=26	=26
1G	8r	.
.	8gg	O-
.	8ff	-v'è
.	8ee	la
.	8dd	fiam-
.	8dd	-ma? o-
.	8cc	-v'è il
.	8b-y	bel
=27	=27	=27
2E	4.a	lu-
.	8g	-me a-
2E	8gL	-sco-
.	16a	.
.	16b-yJ	.
.	4cc	.
=28	=28	=28
1E	8r	.
.	8e	.
.	8fL	.
.	8gJ	.
.	4.a	.
.	8g	.
=29	=29	=29
1D	2a	-so?
.	8r	.
.	8a	De
.	8a	le
.	8a	fio-
=30	=30	=30
4D	8a	-ri-
.	8bnX	-te
4AA	8.cc	guan-
.	16bnX	-cie il
2E	4.bnX	bel
.	8a	ver-
=31	=31	=31
1AA	2a	-mi-
.	2a	-glio
=32	=32	=32
2AA	8r	.
.	8e	O-
.	8f	-v'è
.	8g	fug-
2FF#X	8.a	-gi-
.	16d	-to? o-
.	8d	-v'è il
.	8d	se-
=33	=33	=33
2GG	4d	-ren-
.	16eL	.
.	16f	.
.	16g	.
.	32a	.
.	32bnXiJ	.
2AA	16cc#XL	.
.	16cc#i	.
.	16cc#i	.
.	16cc#iJ	.
.	16bniL	.
.	16cc#i	.
.	8cc#iJ	.
=34	=34	=34
1AA	16fL	-del
.	16e	.
.	16f	.
.	16dJ	.
.	8eL	.
.	16f	.
.	16gJ	.
.	8f	.
.	4f	.
.	16eL	.
.	16eJ	.
=35	=35	=35
1AA	8fL	.
.	8eJ	.
.	8gL	.
.	8fJ	.
.	2e	ci-
=36	=36	=36
1DD	1d	-glio,
=37	=37	=37
2D	8r	.
.	8a	O-
.	8b-y	-v'è
.	8cc	fug-
[2BBnX	8.dd	-gi-
.	16g	-to? o-
.	8g	-v'è il
.	8g	se-
=38	=38	=38
2BB]	4.g	-ren
.	8a	del
2D	2a	ci-
=39	=39	=39
1GGl	1gl	-glio?
==	==	==
*-	*-	*-
!!!system-decoration: [*]
!!!RDF**kern: i = editorial accidental
!!!RDF**kern: l = terminal long
!!!ENC: Emiliano Ricciardi
!!!END:
!!!EED: Ricciardi, Emiliano
!!!EEV: 2020/02/23
!!!YEC: Copyright 2018 Emiliano Ricciardi, All Rights Reserved
!!!ONB: Translated from MusicXML on 2020/02/23
!!@@BEGIN:	VERSEDATA
!!@CATALOGNUM:	Tsg19106
!!@LAST_MODIFIED: 2020/07/12
!!@TITLE:		Misera, non credea ch'a gli occhi miei
!!@CANTO:		XIX
!!@OTTAVA:	106
!!@MANUSRC:	G-Al, G-Au, G-Br<sub>2</sub>, G-Es<sub>1</sub>, G-Es<sub>2</sub>, G-Es<sub>3</sub>, G-F, G-Fr, G-Fr<sub>1</sub>, G-Fr<sub>2</sub>, G-Mc<sub>1</sub>, G-Mr, G-Mt, G-N
!!@PRINTSRC:	G-1580CM, G-1581B, G-1581CV, G-1581R, G-1581MR, G-1581P, G-1581V, G-1581V<sub>bis</sub>, G-1582C, G-1582M, G-1582MC, G-1582P, G-1582SC, G-1582SC<sub>bis</sub>, G-1583S, G-1584O, G-1584S, G-1585C, G-1585S, G-1588S, G-1589S, G-1590B, G-1590S, G-1592S, G-1593S, G-1594C, G-1595C, G-1597C, G-1598C, G-1599C, G-1600C, G-1600S, G-1601C, G-1601R, G-1602C, G-1604C, G-1604Cl, G-1604F, G-1604P, G-1606B, G-1606B<sub>bis</sub>, G-1606L, G-1607ZR, G-1608DP, G-1609GC, G-1610M, G-1611S, G-1611V, G-1612P, G-1613M, G-1613P, G-1613V, G-1615P, G-1616M, G-1617P, G-1619B, G-1619V, G-1620M, G-1620S, G-1621R, G-1624I, G-1624MT, G-1625C, G-1625S, G-1625SS, G-1626C, G-1626Co, G-1627M, G-1628T, G-1628Tu, G-1630L, G-1630T, G-1632FT, G-1639CF, G-1642M, G-1643I, G-1644P, G-1644S
!!@@BEGIN:	VERSES
!!@ABOUTIT:
!!@ABOUTEN:
!!@EDITOR:	Angelo Solerti
!!@EDITION_TITLE: Gerusalemme liberata. Poema eroico di Torquato Tasso. Edizione critica sui manoscritti e le prime stampe.
!!@EDITION_LOC:	Florence
!!@EDITION_PUB:	G. Barbera
!!@EDITION_DATE:  1895
!!@EDITION_VOL:
!!@EDITION_PAGE:
!!@TRANSLATOR:	Emiliano Ricciardi and Amyrose McCue Gill
!!@VERSE:
!!	Misera, non credea ch’a gli occhi miei
!!	Potessi in alcun tempo esser noioso:
!!	Or cieca farmi volentier torrei
!!	Per non vederti, e riguardar non oso.
!!	Oimè! de’ lumi già sì dolci e rei
!!	Ov’è la fiamma? ov’è il bel raggio ascoso?
!!	Delle fiorite guancie il bel vermiglio
!!	Ov’è fuggito? ov’è il seren del ciglio?
!!@TVERSE:
!!	Miserable woman, I did not believe that before my eyes
!!	You could at any time be dreary:
!!	Now blind I would willingly make myself
!!	To not see you, and to look I do not dare.
!!	Dear me! Of eyes once so sweet and proud
!!	Where is the flame? Where is the beautiful ray hidden?
!!	The beautiful blush of the blossoming cheeks,
!!	Where has [it] fled? Where is the serenty of your brow?
!!@@END:		VERSES
!!@OTHER_CRIT_ED:  Torquato Tasso, <i>Gerusalemme liberata</i>, ed. Lanfranco Caretti, 2 vols. (Bari: Laterza, 1967).
!!@ATTRIBUTION_ABOUT:
!!@DATING:	mid-1560s through 1570s
!!@DEDICATEE:	Duke Alfonso II d'Este
!!@COMMENTARY:
!!@@END:		VERSEDATA
!!@@BEGIN: SETTING
!!@CATALOGNUM:	Tsg19106c
!!@CANTO:		XIX
!!@OTTAVA:	106
!!@TITLE:	Misera, non credea ch'a gli occhi miei
!!@COMPOSER:	D'India, Sigismondo
!!@PARTS:		1 of 2
!!@PRINCEPSTITLE:	Musiche di Sigismondo d' India 
!!@PRINCEPSLOC:	Milan
!!@NORMLOC:	Milan
!!@NORMPUB:	Simon Tini & Filippo Lomazzo
!!@NORMPUBSHORT:	Tini & Lomazzo
!!@PRINCEPSPUB:	Tini & Lomazzo
!!@PRINCEPSYEAR:	1609
!!@PRINCEPSRISM:	I 24
!!@OVOICES:	1+bc
!!@EXTANTVOICES:	1+bc
!!@OMENSURATION:	C
!!@OCLEFS:	G2,F4
!!@OTIME:		
!!@OKEYSIG:	b-
!!@FINAL:		G
!!@TIMPEDITOR:	Ricciardi, Emiliano
!!@REPRINTS:	
!!@@END: SETTING
